static/cards/FrenchDeck/default/card_hearts_08.svg

<svg width="219" height="304" viewBox="0 0 219 304" fill="none" xmlns="http://www.w3.org/2000/svg">
<g filter="url(#filter0_d_18_648)">
<g clip-path="url(#clip0_18_648)">
<rect x="8" y="4" width="203" height="288" rx="10" fill="white"/>
<path d="M24.9199 44.5806C19.2744 44.5806 15.3506 41.2974 15.3506 36.5728C15.3506 33.2695 17.5728 30.4868 20.876 29.686V29.4858C18.1934 28.605 16.4316 26.1826 16.4316 23.3999C16.4316 19.1958 20.0352 16.0928 25 16.0928C29.9648 16.0928 33.5884 19.1958 33.5884 23.3999C33.5884 26.1426 31.7666 28.605 29.124 29.4858V29.686C32.3872 30.4668 34.6294 33.2695 34.6294 36.5327C34.6294 41.2373 30.5854 44.5806 24.9199 44.5806ZM25 28.3047C28.043 28.3047 30.1851 26.3628 30.1851 23.6401C30.1851 20.9375 28.063 19.0557 25 19.0557C21.957 19.0557 19.8149 20.9575 19.8149 23.6401C19.8149 26.3428 21.9771 28.3047 25 28.3047ZM25 41.6577C28.6235 41.6577 31.2261 39.4756 31.2261 36.4326C31.2261 33.3896 28.6235 31.1675 25 31.1675C21.3765 31.1675 18.7739 33.3696 18.7739 36.4326C18.7739 39.4756 21.3765 41.6577 25 41.6577Z" fill="#BC1E24"/>
<path d="M21.7347 53.0006C24.4518 53.042 25.5069 55.3984 25.8537 56.5094C25.8888 56.6218 26.1122 56.6217 26.1472 56.5093C26.4938 55.3983 27.5482 53.042 30.2653 53.0006C33.8229 52.9462 36.4995 56.9292 34.0587 60.9289C31.8832 64.4939 26.0821 71 26 71C25.9165 71 20.1169 64.4943 17.9413 60.9289C15.5005 56.9291 18.177 52.9462 21.7347 53.0006Z" fill="#BC1E24"/>
<path d="M194.08 251.419C199.726 251.419 203.649 254.703 203.649 259.427C203.649 262.73 201.427 265.513 198.124 266.314L198.124 266.514C200.807 267.395 202.568 269.817 202.568 272.6C202.568 276.804 198.965 279.907 194 279.907C189.035 279.907 185.412 276.804 185.412 272.6C185.412 269.857 187.233 267.395 189.876 266.514L189.876 266.314C186.613 265.533 184.371 262.73 184.371 259.467C184.371 254.763 188.415 251.419 194.08 251.419ZM194 267.695C190.957 267.695 188.815 269.637 188.815 272.36C188.815 275.062 190.937 276.944 194 276.944C197.043 276.944 199.185 275.042 199.185 272.36C199.185 269.657 197.023 267.695 194 267.695ZM194 254.342C190.376 254.342 187.774 256.524 187.774 259.567C187.774 262.61 190.376 264.833 194 264.833C197.624 264.833 200.226 262.63 200.226 259.567C200.226 256.524 197.624 254.342 194 254.342Z" fill="#BC1E24"/>
<path d="M197.265 242.999C194.548 242.958 193.493 240.602 193.146 239.491C193.111 239.378 192.888 239.378 192.853 239.491C192.506 240.602 191.452 242.958 188.735 242.999C185.177 243.054 182.501 239.071 184.941 235.071C187.117 231.506 192.918 225 193 225C193.083 225 198.883 231.506 201.059 235.071C203.499 239.071 200.823 243.054 197.265 242.999Z" fill="#BC1E24"/>
<path d="M55.2207 30.2514C61.7689 30.3516 64.3116 36.0461 65.1476 38.731C65.2321 39.0026 65.7704 39.0025 65.8549 38.7309C66.6901 36.0459 69.2313 30.3516 75.7794 30.2514C84.3533 30.1199 90.8039 39.7455 84.9216 49.4115C79.6786 58.0269 65.6979 73.75 65.5 73.75C65.2989 73.7499 51.3219 58.0278 46.0785 49.4115C40.1963 39.7454 46.6467 30.1199 55.2207 30.2514Z" fill="#BC1E24"/>
<path d="M55.2207 265.749C61.7689 265.648 64.3116 259.954 65.1476 257.269C65.2321 256.997 65.7704 256.997 65.8549 257.269C66.6901 259.954 69.2313 265.648 75.7794 265.749C84.3533 265.88 90.8039 256.255 84.9216 246.589C79.6786 237.973 65.6979 222.25 65.5 222.25C65.2989 222.25 51.3219 237.972 46.0785 246.589C40.1963 256.255 46.6467 265.88 55.2207 265.749Z" fill="#BC1E24"/>
<path d="M143.221 30.2514C149.769 30.3516 152.312 36.0461 153.148 38.731C153.232 39.0026 153.77 39.0025 153.855 38.7309C154.69 36.0459 157.231 30.3516 163.779 30.2514C172.353 30.1199 178.804 39.7455 172.922 49.4115C167.679 58.0269 153.698 73.75 153.5 73.75C153.299 73.7499 139.322 58.0278 134.079 49.4115C128.196 39.7454 134.647 30.1199 143.221 30.2514Z" fill="#BC1E24"/>
<path d="M55.2207 126.251C61.7689 126.352 64.3116 132.046 65.1476 134.731C65.2321 135.003 65.7704 135.003 65.8549 134.731C66.6901 132.046 69.2313 126.352 75.7794 126.251C84.3533 126.12 90.8039 135.745 84.9216 145.411C79.6786 154.027 65.6979 169.75 65.5 169.75C65.2989 169.75 51.3219 154.028 46.0785 145.411C40.1963 135.745 46.6467 126.12 55.2207 126.251Z" fill="#BC1E24"/>
<path d="M99.2207 78.2514C105.769 78.3516 108.312 84.0461 109.148 86.731C109.232 87.0026 109.77 87.0025 109.855 86.7309C110.69 84.0459 113.231 78.3516 119.779 78.2514C128.353 78.1199 134.804 87.7455 128.922 97.4115C123.679 106.027 109.698 121.75 109.5 121.75C109.299 121.75 95.3219 106.028 90.0785 97.4115C84.1963 87.7454 90.6467 78.1199 99.2207 78.2514Z" fill="#BC1E24"/>
<path d="M99.2207 217.749C105.769 217.648 108.312 211.954 109.148 209.269C109.232 208.997 109.77 208.997 109.855 209.269C110.69 211.954 113.231 217.648 119.779 217.749C128.353 217.88 134.804 208.255 128.922 198.589C123.679 189.973 109.698 174.25 109.5 174.25C109.299 174.25 95.3219 189.972 90.0785 198.589C84.1963 208.255 90.6467 217.88 99.2207 217.749Z" fill="#BC1E24"/>
<path d="M143.221 126.251C149.769 126.352 152.312 132.046 153.148 134.731C153.232 135.003 153.77 135.003 153.855 134.731C154.69 132.046 157.231 126.352 163.779 126.251C172.353 126.12 178.804 135.745 172.922 145.411C167.679 154.027 153.698 169.75 153.5 169.75C153.299 169.75 139.322 154.028 134.079 145.411C128.196 135.745 134.647 126.12 143.221 126.251Z" fill="#BC1E24"/>
<path d="M143.221 265.749C149.769 265.648 152.312 259.954 153.148 257.269C153.232 256.997 153.77 256.997 153.855 257.269C154.69 259.954 157.231 265.648 163.779 265.749C172.353 265.88 178.804 256.255 172.922 246.589C167.679 237.973 153.698 222.25 153.5 222.25C153.299 222.25 139.322 237.972 134.079 246.589C128.196 256.255 134.647 265.88 143.221 265.749Z" fill="#BC1E24"/>
</g>
</g>
<defs>
<filter id="filter0_d_18_648" x="0" y="0" width="219" height="304" filterUnits="userSpaceOnUse" color-interpolation-filters="sRGB">
<feFlood flood-opacity="0" result="BackgroundImageFix"/>
<feColorMatrix in="SourceAlpha" type="matrix" values="0 0 0 0 0 0 0 0 0 0 0 0 0 0 0 0 0 0 127 0" result="hardAlpha"/>
<feOffset dy="4"/>
<feGaussianBlur stdDeviation="4"/>
<feComposite in2="hardAlpha" operator="out"/>
<feColorMatrix type="matrix" values="0 0 0 0 0.614771 0 0 0 0 0.70094 0 0 0 0 0.806257 0 0 0 1 0"/>
<feBlend mode="normal" in2="BackgroundImageFix" result="effect1_dropShadow_18_648"/>
<feBlend mode="normal" in="SourceGraphic" in2="effect1_dropShadow_18_648" result="shape"/>
</filter>
<clipPath id="clip0_18_648">
<rect x="8" y="4" width="203" height="288" rx="10" fill="white"/>
</clipPath>
</defs>
</svg>

<svg xmlns="http://www.w3.org/2000/svg" width="219" height="304" fill="none" viewBox="0 0 219 304"><g filter="url(#a)"><g clip-path="url(#b)"><rect width="203" height="288" x="8" y="4" fill="#fff" rx="10"/><path fill="#bc1e24" d="M24.92 44.58c-5.646 0-9.57-3.283-9.57-8.007 0-3.303 2.223-6.086 5.526-6.887v-.2c-2.683-.881-4.444-3.303-4.444-6.086 0-4.204 3.603-7.307 8.568-7.307s8.588 3.103 8.588 7.307c0 2.743-1.821 5.205-4.464 6.086v.2c3.263.78 5.505 3.584 5.505 6.847 0 4.704-4.044 8.048-9.71 8.048M25 28.306c3.043 0 5.185-1.942 5.185-4.665 0-2.703-2.122-4.584-5.185-4.584-3.043 0-5.185 1.901-5.185 4.584 0 2.703 2.162 4.665 5.185 4.665m0 13.353c3.624 0 6.226-2.182 6.226-5.225S28.624 31.168 25 31.168s-6.226 2.202-6.226 5.265c0 3.043 2.602 5.225 6.226 5.225M21.735 53c2.717.042 3.772 2.398 4.119 3.51.035.112.258.112.293 0 .347-1.112 1.401-3.468 4.118-3.51 3.558-.054 6.234 3.93 3.794 7.929C31.883 64.494 26.082 71 26 71c-.084 0-5.883-6.506-8.059-10.071-2.44-4 .236-7.983 3.794-7.928M194.08 251.419c5.646 0 9.569 3.284 9.569 8.008 0 3.303-2.222 6.086-5.525 6.887v.2c2.683.881 4.444 3.303 4.444 6.086 0 4.204-3.603 7.307-8.568 7.307s-8.588-3.103-8.588-7.307c0-2.743 1.821-5.205 4.464-6.086v-.2c-3.263-.781-5.505-3.584-5.505-6.847 0-4.704 4.044-8.048 9.709-8.048m-.08 16.276c-3.043 0-5.185 1.942-5.185 4.665 0 2.702 2.122 4.584 5.185 4.584 3.043 0 5.185-1.902 5.185-4.584 0-2.703-2.162-4.665-5.185-4.665m0-13.353c-3.624 0-6.226 2.182-6.226 5.225s2.602 5.266 6.226 5.266 6.226-2.203 6.226-5.266c0-3.043-2.602-5.225-6.226-5.225M197.265 242.999c-2.717-.041-3.772-2.397-4.119-3.508-.035-.113-.258-.113-.293 0-.347 1.111-1.401 3.467-4.118 3.508-3.558.055-6.234-3.928-3.794-7.928C187.117 231.506 192.918 225 193 225c.083 0 5.883 6.506 8.059 10.071 2.44 4-.236 7.983-3.794 7.928M55.22 30.251c6.549.1 9.092 5.795 9.928 8.48.084.272.622.271.707 0 .835-2.685 3.376-8.38 9.924-8.48 8.574-.131 15.025 9.494 9.143 19.16C79.679 58.027 65.698 73.75 65.5 73.75c-.201 0-14.178-15.722-19.421-24.339-5.883-9.666.568-19.291 9.142-19.16M55.22 265.749c6.549-.101 9.092-5.795 9.928-8.48.084-.272.622-.272.707 0 .835 2.685 3.376 8.379 9.924 8.48 8.574.131 15.025-9.494 9.143-19.16-5.243-8.616-19.224-24.339-19.422-24.339-.201 0-14.178 15.722-19.421 24.339-5.883 9.666.568 19.291 9.142 19.16M143.221 30.251c6.548.1 9.091 5.795 9.927 8.48.084.272.622.271.707 0 .835-2.685 3.376-8.38 9.924-8.48 8.574-.131 15.025 9.494 9.143 19.16-5.243 8.616-19.224 24.339-19.422 24.339-.201 0-14.178-15.722-19.421-24.339-5.883-9.666.568-19.291 9.142-19.16M55.22 126.251c6.549.101 9.092 5.795 9.928 8.48.084.272.622.272.707 0 .835-2.685 3.376-8.379 9.924-8.48 8.574-.131 15.025 9.494 9.143 19.16-5.243 8.616-19.224 24.339-19.422 24.339-.201 0-14.178-15.722-19.421-24.339-5.883-9.666.568-19.291 9.142-19.16M99.22 78.251c6.549.1 9.092 5.795 9.928 8.48.084.272.622.272.707 0 .835-2.685 3.376-8.38 9.924-8.48 8.574-.131 15.025 9.495 9.143 19.16-5.243 8.616-19.224 24.339-19.422 24.339-.201 0-14.178-15.722-19.421-24.338-5.883-9.667.568-19.292 9.142-19.16M99.22 217.749c6.549-.101 9.092-5.795 9.928-8.48.084-.272.622-.272.707 0 .835 2.685 3.376 8.379 9.924 8.48 8.574.131 15.025-9.494 9.143-19.16-5.243-8.616-19.224-24.339-19.422-24.339-.201 0-14.178 15.722-19.421 24.339-5.883 9.666.568 19.291 9.142 19.16M143.221 126.251c6.548.101 9.091 5.795 9.927 8.48.084.272.622.272.707 0 .835-2.685 3.376-8.379 9.924-8.48 8.574-.131 15.025 9.494 9.143 19.16-5.243 8.616-19.224 24.339-19.422 24.339-.201 0-14.178-15.722-19.421-24.339-5.883-9.666.568-19.291 9.142-19.16M143.221 265.749c6.548-.101 9.091-5.795 9.927-8.48.084-.272.622-.272.707 0 .835 2.685 3.376 8.379 9.924 8.48 8.574.131 15.025-9.494 9.143-19.16-5.243-8.616-19.224-24.339-19.422-24.339-.201 0-14.178 15.722-19.421 24.339-5.883 9.666.568 19.291 9.142 19.16"/></g></g><defs><clipPath id="b"><rect width="203" height="288" x="8" y="4" fill="#fff" rx="10"/></clipPath><filter id="a" width="219" height="304" x="0" y="0" color-interpolation-filters="sRGB" filterUnits="userSpaceOnUse"><feFlood flood-opacity="0" result="BackgroundImageFix"/><feColorMatrix in="SourceAlpha" result="hardAlpha" values="0 0 0 0 0 0 0 0 0 0 0 0 0 0 0 0 0 0 127 0"/><feOffset dy="4"/><feGaussianBlur stdDeviation="4"/><feComposite in2="hardAlpha" operator="out"/><feColorMatrix values="0 0 0 0 0.614771 0 0 0 0 0.70094 0 0 0 0 0.806257 0 0 0 1 0"/><feBlend in2="BackgroundImageFix" result="effect1_dropShadow_18_648"/><feBlend in="SourceGraphic" in2="effect1_dropShadow_18_648" result="shape"/></filter></defs></svg>
